X: 271
T: the Craigies
T: dance: Northern Harmony [Gregor Trinkaus-Randall]
C: Tom Pixton \251 1999
R: jig
B: Celebrate Fifty Years of Dancing with the Boston Branch RSCDS (2000) p.27
Z: 2012 John Chambers <jc:trillian.mit.edu>
M: 6/8
L: 1/8
P: AAB
K: F
"A"|: C |\
"F"F2A AGF | "F"AGA "C"A2G | "F"F2A AGF | "Gm"BAB BAG |\
"Dm"A2f fef | "Dm"fef "C"cAB | "F"c2c cAG | "Dm"AGA "Bb"FD :|
"B"[|] C |\
"F"F2d dcd | "F"dcd "C"cAG | "F"Acd dcf | "Gm"BAB BAG |\
"Dm"Acd dcf | "Dm"fef "C"cAG | "F"A2c cAG | "Dm"AGA "Bb"FDC ||
"F"F2f fef | "F"fef "C"cAG | "Dm"Acd dcf | "Bb"dcd dcd |\
"F"F2f fef | "Bb"dcd dAB | "C7"c2c cAG | "F"AGA "Bb"FD |]

%%sep 2 1 500
%%sep 1 1 500

